X:538
T:Kevin's Celebration Waltz
C:Colin Hume, 2018
L:1/8
M:3/4
R:Waltz
%%MIDI program 60     French Horn
%%MIDI chordprog 44   Tremolo Strings
%%MIDI bassprog 43    Contrabass
%%MIDI gchord bbb
%%MIDI beat 100 95 80
S:Colin Hume's website,  colinhume.com  - chords can also be printed below the stave.
Q:1/4=110
K:Am
P:A
|: E2 | "Am"A2c2E2 | "Dm"B2d2B2 | "Am/E"c2e2dc | "E7"d2B4 |\
"B7/D#"A2c2BA | "E7"B2c2d2 |1 "Am"e2Ac "Dm"BA | "E"^G4 :|2 "Am"e2A2 "E7"^G2 | "Am"A6 |
P:B
"G"Bcd2g2 | "Am"cBA4 | "D7"ABc2d2 | "Em"BAG4 |\
"G"Bcd2g2 | "Am"ag^f3e | "D"d2 "Em/D"e2 "D7"^f2 | "G"g2 "Am/G"a2 "G7"b2 |
P:C
"C"c'g ec' ba | "G"bg dB dg | "F"af ca gf | "C"ge cG ce | "Dm"dF eF dF | "G7"dF cF BF |
"C"cE dE cE | "Am"cE BE AE | "F"AF CA GF | "C"GE CG, CE | "Dm"DE FD EF | "G"GA BG "G7"AB |
P:D
|: "C"c2e2"/B"e2 | "Am"ed cd e2 | "Dm"d2f2 "/C"f2 | "G7/B"fe "/A"de "/G"f2 |\
"C"g2c2"/E"g2 | "F"ag fe "G"d2 |1 "C/E"g2 "F"fe "Dm/A"dc | "G7"d6 :|2 "C/E"g2 "F"fe "G7"de | "C"c6 |]

